Yaru++/actions/16/package-downgrade.svg

<svg height="16" width="16" xmlns="http://www.w3.org/2000/svg">
  <path d="m5.3261719 0c-1.67759.0195-2.9064963-.04015813-3.9101563.51367188-.50182995.27685999-.89762746.74519812-1.11718748 1.33007812-.21956.58488-.29882812 1.27944-.29882812 2.15625v8c0 .87681.07924813 1.57137.29882812 2.15625.21956002.58488.61535753 1.053218 1.11718748 1.330078 1.00366.55376 2.2325663.494242 3.9101563.513672h.0039062 5.3398439.003906c1.67759-.0195 2.904543.04016 3.908203-.513672.50183-.27686.897628-.745198 1.117188-1.330078.219982-.58488.300781-1.27944.300781-2.15625v-8c0-.87681-.079248-1.57136-.298828-2.15625-.21955-.58488-.615358-1.05319813-1.117188-1.33007812-1.00366-.55379-2.232556-.49431188-3.910156-.51367188h-.003906-2.0039064-3.3359375zm2.1972656 2h.953125v7.6308594h1.9082035c-.33185.7247296-.7032316 1.4634136-1.1132816 2.2148436-.40257.73083-.8261744 1.448697-1.2714844 2.154297-.42912-.69135-.8477725-1.409537-1.2578125-2.154297-.39735-.7272-.7743131-1.466897-1.1269531-2.2167968h1.9082031z" fill="#fb7c38"/>
</svg>

<svg xmlns="http://www.w3.org/2000/svg" width="16" height="16" version="1.1">
 <g transform="translate(-212.00006,-280)">
  <path style="fill:#fb7c38" d="M 5.3261719 0 C 3.6485819 0.0195 2.4196756 -0.040158135 1.4160156 0.51367188 C 0.91418565 0.79053187 0.51838814 1.25887 0.29882812 1.84375 C 0.079268125 2.42863 -3.7007434e-17 3.12319 0 4 L 0 12 C 0 12.87681 0.079248125 13.57137 0.29882812 14.15625 C 0.51838814 14.74113 0.91418565 15.209468 1.4160156 15.486328 C 2.4196756 16.040088 3.6485819 15.98057 5.3261719 16 L 5.3300781 16 L 10.669922 16 L 10.673828 16 C 12.351418 15.9805 13.578371 16.04016 14.582031 15.486328 C 15.083861 15.209468 15.479659 14.74113 15.699219 14.15625 C 15.919201 13.57137 16 12.87681 16 12 L 16 4 C 16 3.12319 15.920752 2.42864 15.701172 1.84375 C 15.481622 1.25887 15.085814 0.79055187 14.583984 0.51367188 C 13.580324 -0.040118125 12.351428 0.01936 10.673828 0 L 10.669922 0 L 8.6660156 0 L 5.3300781 0 L 5.3261719 0 z M 7.5234375 2 L 8.4765625 2 L 8.4765625 9.6308594 L 10.384766 9.6308594 C 10.052916 10.355589 9.6815344 11.094273 9.2714844 11.845703 C 8.8689144 12.576533 8.44531 13.2944 8 14 C 7.57088 13.30865 7.1522275 12.590463 6.7421875 11.845703 C 6.3448375 11.118503 5.9678744 10.378806 5.6152344 9.6289062 L 7.5234375 9.6289062 L 7.5234375 2 z" transform="translate(212.00006,280)"/>
 </g>
</svg>
